dist/icons/svgs/eye-slash-outline.svg

<svg xmlns="http://www.w3.org/2000/svg" width="24" height="24" fill="currentcolor" class="icon-eye-slash-outline" viewBox="0 0 24 24">
  <path d="M2.48459 2.2344L6.85959 5.63284C8.6174 4.30472 10.8049 3.25003 13.5002 3.25003C16.6252 3.25003 19.1643 4.69534 21.0002 6.41409C22.8361 8.09378 24.0471 10.125 24.633 11.5313C24.7502 11.8438 24.7502 12.1953 24.633 12.5078C24.1252 13.7578 23.0705 15.5547 21.508 17.1172L25.6096 20.3594C26.0393 20.6719 26.1174 21.2578 25.7658 21.6485C25.4533 22.0782 24.8674 22.1563 24.4768 21.8047L1.35177 3.67972C0.922087 3.36722 0.843962 2.78128 1.19552 2.39065C1.50802 1.96097 2.09396 1.88284 2.48459 2.2344ZM8.38302 6.84378L10.1799 8.25003C11.0783 7.46878 12.2111 7.00003 13.5002 7.00003C16.2346 7.00003 18.5002 9.26565 18.5002 12C18.5002 12.8594 18.3049 13.6407 17.9143 14.3047L20.0236 15.9453C21.3908 14.6172 22.3283 13.0938 22.7971 12C22.2893 10.8282 21.2346 9.18753 19.7111 7.78128C18.1096 6.2969 16.0393 5.12503 13.5002 5.12503C11.508 5.12503 9.82834 5.82815 8.38302 6.84378ZM16.3908 13.1328C16.5471 12.7813 16.6252 12.3907 16.6252 12C16.6252 10.2813 15.219 8.87503 13.5002 8.87503C13.4611 8.87503 13.4221 8.87503 13.4221 8.87503C13.4611 9.1094 13.5002 9.30472 13.5002 9.50003C13.5002 9.92972 13.383 10.2813 13.2268 10.6328L16.3908 13.1328ZM16.7815 18.211L18.4221 19.5C16.9768 20.2813 15.3361 20.75 13.5002 20.75C10.3361 20.75 7.79709 19.3438 5.96115 17.625C4.12521 15.9063 2.91427 13.875 2.32834 12.5078C2.21115 12.1953 2.21115 11.8438 2.32834 11.5313C2.71896 10.6328 3.34396 9.50003 4.2424 8.32815L5.68771 9.50003C4.98459 10.3985 4.47677 11.2969 4.16427 12C4.71115 13.1719 5.72677 14.8516 7.25021 16.2578C8.85177 17.7422 10.9221 18.875 13.5002 18.875C14.6721 18.875 15.7658 18.6407 16.7815 18.211ZM8.50021 12H8.46115C8.46115 11.9219 8.50021 11.8047 8.50021 11.6875L10.6877 13.4063C11.0783 14.2266 11.8596 14.8516 12.7971 15.0469L14.9846 16.8047C14.5158 16.9219 14.008 17 13.5002 17C10.7268 17 8.50021 14.7735 8.50021 12Z"/>
</svg>

<svg xmlns="http://www.w3.org/2000/svg" width="24" height="24" fill="currentColor" class="icon-eye-slash-outline" viewBox="0 0 24 24">
  <path d="M2.485 2.234 6.86 5.633C8.617 4.305 10.805 3.25 13.5 3.25c3.125 0 5.664 1.445 7.5 3.164 1.836 1.68 3.047 3.711 3.633 5.117a1.4 1.4 0 0 1 0 .977c-.508 1.25-1.562 3.047-3.125 4.61l4.102 3.241c.43.313.507.899.156 1.29-.313.43-.899.507-1.29.156L1.353 3.68c-.43-.313-.508-.899-.156-1.29.312-.429.898-.507 1.289-.156m5.898 4.61L10.18 8.25A5 5 0 0 1 13.5 7c2.735 0 5 2.266 5 5 0 .86-.195 1.64-.586 2.305l2.11 1.64c1.367-1.328 2.304-2.851 2.773-3.945-.508-1.172-1.562-2.812-3.086-4.219-1.601-1.484-3.672-2.656-6.21-2.656-1.993 0-3.673.703-5.118 1.719m8.008 6.289A2.8 2.8 0 0 0 16.625 12 3.134 3.134 0 0 0 13.5 8.875h-.078c.04.234.078.43.078.625 0 .43-.117.781-.273 1.133zm.39 5.078 1.641 1.289a10.2 10.2 0 0 1-4.922 1.25c-3.164 0-5.703-1.406-7.539-3.125s-3.047-3.75-3.633-5.117a1.4 1.4 0 0 1 0-.977 15.6 15.6 0 0 1 1.914-3.203L5.688 9.5A12.3 12.3 0 0 0 4.164 12c.547 1.172 1.563 2.852 3.086 4.258 1.602 1.484 3.672 2.617 6.25 2.617a8.35 8.35 0 0 0 3.282-.664M8.502 12h-.04c0-.078.04-.195.04-.312l2.187 1.718a3.03 3.03 0 0 0 2.11 1.64l2.187 1.759A6.2 6.2 0 0 1 13.5 17c-2.773 0-5-2.226-5-5"/>
</svg>
